X:1
T:Title
%%score ( 1 2 ) ( 3 4 )
L:1/8
Q:1/4=160
M:2/2
K:C
V:1 treble nm="Grand Piano, Unnamed-000"
V:2 treble 
V:3 bass nm="Choir Pad, Truro, LM"
V:4 bass 
V:1
 C4 [CE]3 [CF] | [CG]6 G2 | [FA]4 [FB]4 | [Ec]6 [B,G]2 | [Cc]4 [CG]4 | [B,F]2 [CE]2 [G,D]2 C2 | %6
w: By~Williams�~Psalmodia~Evangelica,~1789 * *||||||
 [B,F]4 [CE]4 | [B,D]6 [B,D]2 | [DG]4 [DA]4 | [DB]6 [Dd]2 | d2 c2 [DB]2 [CA]2 | [B,G]6 [DG]2 | %12
w: ||||||
 [CG]4 [Cc]4 | [CD]2 [B,A]2 [CG]2 [DF]2 | [CE]4 [B,D]4 | C8- | C4 z4 |] %17
w: |||||
V:2
 x8 | x8 | x8 | x8 | x8 | x8 | x8 | x8 | x8 | x8 | E4 z4 | x8 | x8 | x8 | x8 | x8 | x8 |] %17
V:3
 [C,E,]4 [C,G,]3 [D,G,] | [E,G,]6 [E,C]2 | [F,C]4 [D,G,]4 | [C,G,]6 [D,G,]2 | [E,G,]4 [E,G,]4 | %5
 G,2- [C,G,]2 [F,B,]2 [E,C]2 | [D,G,]4 [C,G,]4 | [G,,G,]6 [G,,G,]2 | [B,,G,]4 [D,^F,]4 | %9
 G,6 [B,,G,]2 | [C,G,]4 G,2 ^F,2 | [G,,G,]6 [F,B,]2 | [E,C]4 [C,E,]4 | %13
 [F,A,]2 [D,F,]2 [E,G,]2 [F,A,]2 | G,4 G,2 F,2 | [C,E,]8- | [C,E,]4 z4 |] %17
V:4
 x8 | x8 | x8 | x8 | x8 | .D,4 z4 | x8 | x8 | x8 | x8 | z4 D,4 | x8 | x8 | x8 | z4 G,,4 | x8 | %16
 x8 |] %17

